source/img/icon-editor-crop.svg

<svg width="48" height="48" xmlns="http://www.w3.org/2000/svg">

 <g>
  <title>background</title>
  <rect fill="none" id="canvas_background" height="402" width="582" y="-1" x="-1"/>
 </g>
 <g>
  <title>Layer 1</title>
  <path id="svg_1" d="m0,0l48,0l0,48l-48,0l0,-48z" fill="none"/>
  <path fill="#d22856" id="svg_2" d="m34,30l4,0l0,-16c0,-2.21 -1.79,-4 -4,-4l-16,0l0,4l16,0l0,16zm-20,4l0,-32l-4,0l0,8l-8,0l0,4l8,0l0,20c0,2.21 1.79,4 4,4l20,0l0,8l4,0l0,-8l8,0l0,-4l-32,0z"/>
 </g>
</svg>

<svg version="1.0" id="Layer_1" xmlns="http://www.w3.org/2000/svg" xmlns:xlink="http://www.w3.org/1999/xlink" x="0px" y="0px" width="48px" height="48px" viewBox="0 0 48 48" enable-background="new 0 0 48 48" xml:space="preserve">
  <path fill="none" d="M0,0h48v48H0V0z"/>
  <path d="M34,30h4V14c0-2.21-1.79-4-4-4H18v4h16V30z M14,34V2h-4v8H2v4h8v20c0,2.21,1.79,4,4,4h20v8h4v-8h8v-4H14z"/>
</svg>
